svg/furkot/freepik/hospital.svg

<svg viewBox="0 0 512 512" xmlns="http://www.w3.org/2000/svg"><path d="m351.714 0h-191.428c-9.486 0-17.143 7.657-17.143 17.143v83.6h-41.486c-9.486 0-17.143 7.657-17.143 17.143v376.971c0 9.486 7.657 17.143 17.143 17.143h107.429v-21.029c0-9.486 7.656-17.142 17.143-17.142h59.542c9.487 0 17.143 7.656 17.143 17.142v21.029h107.429c9.487 0 17.143-7.657 17.143-17.143v-376.971c0-9.486-7.656-17.143-17.143-17.143h-41.486v-83.6c0-9.486-7.657-17.143-17.143-17.143zm-142.628 422.514c0 9.486-7.657 17.143-17.143 17.143h-54.114c-9.486 0-17.143-7.657-17.143-17.143v-16.057c0-9.486 7.657-17.143 17.143-17.143h54.114c9.486 0 17.143 7.657 17.143 17.143zm0-87.143c0 9.486-7.657 17.143-17.143 17.143h-54.114c-9.486 0-17.143-7.657-17.143-17.143v-16.057c0-9.485 7.657-17.143 17.143-17.143h54.114c9.486 0 17.143 7.658 17.143 17.143zm0-87.142c0 9.485-7.657 17.142-17.143 17.142h-54.114c-9.486 0-17.143-7.657-17.143-17.142v-16.058c0-9.485 7.657-17.142 17.143-17.142h54.114c9.486 0 17.143 7.657 17.143 17.142zm93.714-78c-9.486 0-17.143-7.658-17.143-17.143v-28.972h-59.314v28.972c0 9.485-7.657 17.143-17.143 17.143h-12.457c-9.486 0-17.143-7.658-17.143-17.143v-104.686c0-9.486 7.657-17.143 17.143-17.143h12.457c9.486 0 17.143 7.657 17.143 17.143v28.971h59.314v-28.971c0-9.486 7.657-17.143 17.143-17.143h12.458c9.485 0 17.143 7.657 17.143 17.143v104.686c0 9.485-7.658 17.143-17.143 17.143zm88.515 252.285c0 9.486-7.657 17.143-17.143 17.143h-54.115c-9.486 0-17.143-7.657-17.143-17.143v-16.057c0-9.486 7.657-17.143 17.143-17.143h54.115c9.486 0 17.143 7.657 17.143 17.143zm0-87.143c0 9.486-7.657 17.143-17.143 17.143h-54.115c-9.486 0-17.143-7.657-17.143-17.143v-16.057c0-9.485 7.657-17.143 17.143-17.143h54.115c9.486 0 17.143 7.658 17.143 17.143zm-17.143-120.342c9.486 0 17.143 7.657 17.143 17.142v16.058c0 9.485-7.657 17.142-17.143 17.142h-54.115c-9.486 0-17.143-7.657-17.143-17.142v-16.058c0-9.485 7.657-17.142 17.143-17.142z"/></svg>

<svg xmlns="http://www.w3.org/2000/svg" viewBox="0 0 512 512"><path d="M351.714 0H160.286C150.8 0 143.143 7.657 143.143 17.143V100.743H101.657C92.171 100.743 84.514 108.4 84.514 117.886V494.857C84.514 504.343 92.171 512 101.657 512H209.086V490.971C209.086 481.485 216.742 473.829 226.229 473.829H285.771C295.258 473.829 302.914 481.485 302.914 490.971V512H410.343C419.83 512 427.486 504.343 427.486 494.857V117.886C427.486 108.4 419.83 100.743 410.343 100.743H368.857V17.143C368.857 7.657 361.2 0 351.714 0ZM209.086 422.514C209.086 432 201.429 439.657 191.943 439.657H137.829C128.343 439.657 120.686 432 120.686 422.514V406.457C120.686 396.971 128.343 389.314 137.829 389.314H191.943C201.429 389.314 209.086 396.971 209.086 406.457V422.514L209.086 422.514ZM209.086 335.371C209.086 344.857 201.429 352.514 191.943 352.514H137.829C128.343 352.514 120.686 344.857 120.686 335.371V319.314C120.686 309.829 128.343 302.171 137.829 302.171H191.943C201.429 302.171 209.086 309.829 209.086 319.314V335.371L209.086 335.371ZM209.086 248.229C209.086 257.714 201.429 265.371 191.943 265.371H137.829C128.343 265.371 120.686 257.714 120.686 248.229V232.171C120.686 222.686 128.343 215.029 137.829 215.029H191.943C201.429 215.029 209.086 222.686 209.086 232.171V248.229L209.086 248.229ZM302.8 170.229C293.314 170.229 285.657 162.571 285.657 153.086V124.114H226.343V153.086C226.343 162.571 218.686 170.229 209.2 170.229H196.743C187.257 170.229 179.6 162.571 179.6 153.086V48.4C179.6 38.914 187.257 31.257 196.743 31.257H209.2C218.686 31.257 226.343 38.914 226.343 48.4V77.371H285.657V48.4C285.657 38.914 293.314 31.257 302.8 31.257H315.258C324.743 31.257 332.401 38.914 332.401 48.4V153.086C332.401 162.571 324.743 170.229 315.258 170.229H302.8ZM391.315 422.514C391.315 432 383.658 439.657 374.172 439.657H320.057C310.571 439.657 302.914 432 302.914 422.514V406.457C302.914 396.971 310.571 389.314 320.057 389.314H374.172C383.658 389.314 391.315 396.971 391.315 406.457V422.514ZM391.315 335.371C391.315 344.857 383.658 352.514 374.172 352.514H320.057C310.571 352.514 302.914 344.857 302.914 335.371V319.314C302.914 309.829 310.571 302.171 320.057 302.171H374.172C383.658 302.171 391.315 309.829 391.315 319.314V335.371ZM374.172 215.029C383.658 215.029 391.315 222.686 391.315 232.171V248.229C391.315 257.714 383.658 265.371 374.172 265.371H320.057C310.571 265.371 302.914 257.714 302.914 248.229V232.171C302.914 222.686 310.571 215.029 320.057 215.029H374.172Z"/></svg>
